icon-themes/sifr_svg/cmd/lc_basicstepinto.svg

<svg viewBox="0 0 24 24" xmlns="http://www.w3.org/2000/svg"><path d="m4.0078125 2.9980469a1.0001 1.0001 0 1 0 0 2h7.9999995v6.6835941l-.28125-.371094c-.190288-.18267-.461858-.3125-.71875-.3125h-1v.412109.587891c0 .30945.0903.55232.28125.75l2.71875 3.25c1.073001-1.41667 1.64574-1.83333 2.71875-3.25.190952-.19768.28125-.44055.28125-.75v-.587891-.412109h-1c-.25689 0-.52845.12983-.71875.3125l-.28125.371094v-7.6835941a1.0001 1.0001 0 0 0 -1-1zm4.1503906 3.9941406c-.1097598.0011-.235835.011355-.3925781.046875-.3134861.07105-.7368535.3951683-.8867188.7226563-.2997303.654975-.2124366 1.1405933-.203125 2.1933593-.0001633 1.0072779-.024384 1.6869459-.1640624 2.1113279-.1401928.425944-.3448315.712347-1.0625 1.148438a.91937568.91937568 0 0 0 -.0761719.052734.91937568.91937568 0 0 0 -.1914063.195313.91937568.91937568 0 0 0 -.0507812.078125.91937568.91937568 0 0 0 -.0761719.166015.91937568.91937568 0 0 0 -.0253906.089844.91937568.91937568 0 0 0 -.015625.089844.91937568.91937568 0 0 0 -.0039063.183593.91937568.91937568 0 0 0 .0996094.351563.91937568.91937568 0 0 0 .1601562.222656.91937568.91937568 0 0 0 .140625.117188.91937568.91937568 0 0 0 .0351563.023437.91937568.91937568 0 0 0 .0039063.001953c.00389.0024.0039325.001507.0078124.003907.4112939.250026.6998972.432548.8554688.558593.1568931.127116.1799551.163787.2226562.267579.0854021.20758.140625.917365.140625 2.4375-.00982 1.017486-.1013964 1.492746.1816407 2.144531.1420305.327072.5513818.660482.8632812.742187.3118992.0817.5064087.058594.7070313.058594h1.6679686v-.003906c.0051-.000039.008602.004006.013672.003906a.91937568.91937568 0 0 0 -.013672-1.837891h-.013672c-.2048932.002935-.244916-.03028-.3144529-.091797-.069537-.061517-.162053-.197813-.2363281-.416015-.1485502-.436405-.1835936-1.126125-.1835938-1.613281 0-1.132559-.3063823-2.015404-.9082031-2.564454-.226908-.20701-.5229597-.329144-.765625-.474609.2412557-.144842.5340172-.262416.7597657-.46875.6032149-.551337.9140624-1.436923.9140624-2.572265 0-.506715.0219161-1.1873396.1621094-1.6132818.070097-.2129709.1579314-.3423458.2285156-.4042968.0705842-.06195.1266777-.1035156.3574218-.1035156a.91937568.91937568 0 0 0 0-1.8378907h-1.6406249c-.093671-.0027-.1871153-.0108056-.296875-.0097656zm9.6992189 0c-.109271-.0011-.203205.0070656-.296875.0097656h-1.642578v1.8378907c.230745 0 .286838.0415596.357422.1035156.07058.06195.158418.1913269.228515.4042968.140193.425941.164063 1.1065718.164063 1.6132818 0 1.135342.310848 2.020928.914062 2.572265.225748.206334.51851.323908.759766.46875-.242972.145597-.540409.267361-.767578.474609-.601822.549049-.90625 1.431895-.90625 2.564454 0 .487161-.037 1.176875-.185547 1.613281-.07428.218203-.166791.354498-.236328.416015-.06954.061521-.109557.094657-.314453.091797h-.013672a.91937568.91937568 0 0 0 -.011719 1.837891c.0045.000063.007299-.003906.011719-.003906v.003906h1.667969c.200624 0 .397084.023106.708984-.058594.311902-.08171.721251-.415117.863281-.742187.283035-.651783.191458-1.127048.181641-2.144531v-.007813c.000344-1.510123.05354-2.222772.138672-2.429687.0427-.103792.067719-.140465.224609-.267579.155568-.126042.442231-.308574.853516-.558593.0035-.0021.004312-.001807.007812-.003907a.91937568.91937568 0 0 0 .003906-.001953.91937568.91937568 0 0 0 .072266-.050781.91937568.91937568 0 0 0 .003906-.001953.91937568.91937568 0 0 0 .066407-.056641.91937568.91937568 0 0 0 .003906-.001953.91937568.91937568 0 0 0 .060547-.0625.91937568.91937568 0 0 0 .003906-.003906.91937568.91937568 0 0 0 .054687-.06836.91937568.91937568 0 0 0 .001954-.003906.91937568.91937568 0 0 0 .046874-.074218.91937568.91937568 0 0 0 .001954-.003907.91937568.91937568 0 0 0 .041015-.078125.91937568.91937568 0 0 0 .001953-.003906.91937568.91937568 0 0 0 .03125-.080078.91937568.91937568 0 0 0 .001954-.003906.91937568.91937568 0 0 0 .023437-.085938.91937568.91937568 0 0 0 0-.003906.91937568.91937568 0 0 0 .015625-.085938.91937568.91937568 0 0 0 0-.003906.91937568.91937568 0 0 0 .007812-.08789.91937568.91937568 0 0 0 0-.003907.91937568.91937568 0 0 0 -.003906-.08789.91937568.91937568 0 0 0 0-.003907.91937568.91937568 0 0 0 -.011718-.08789.91937568.91937568 0 0 0 0-.003906.91937568.91937568 0 0 0 -.019532-.083985.91937568.91937568 0 0 0 -.001953-.005859.91937568.91937568 0 0 0 -.027344-.082032.91937568.91937568 0 0 0 -.001953-.003906.91937568.91937568 0 0 0 -.037109-.080078.91937568.91937568 0 0 0 -.001953-.003906.91937568.91937568 0 0 0 -.042969-.076172.91937568.91937568 0 0 0 -.001953-.001953.91937568.91937568 0 0 0 -.052734-.072266.91937568.91937568 0 0 0 -.001954-.001953.91937568.91937568 0 0 0 -.007812-.009766.91937568.91937568 0 0 0 -.050781-.05664.91937568.91937568 0 0 0 -.039063-.03711.91937568.91937568 0 0 0 -.027344-.02539.91937568.91937568 0 0 0 -.003906-.001953.91937568.91937568 0 0 0 -.070312-.052735.91937568.91937568 0 0 0 -.003907-.001953.91937568.91937568 0 0 0 -.035156-.023437c-.717671-.436097-.922308-.722495-1.0625-1.148438-.139679-.42438-.161945-1.10405-.162109-2.1113279v-.0078125c.0098-1.045066.09555-1.5328849-.203125-2.1855468-.149865-.327488-.575187-.6516033-.888672-.7226563-.156744-.03553-.281353-.045805-.390625-.046875z" fill="#555753"/></svg>

<svg xmlns="http://www.w3.org/2000/svg" viewBox="0 0 24 24">
 <path
     style="fill:#555753"
     d="M 4.0078125 2.9980469 A 1.0001 1.0001 0 1 0 4.0078125 4.9980469 L 12.007812 4.9980469 L 12.007812 11.681641 L 11.726562 11.310547 C 11.536274 11.127877 11.264704 10.998047 11.007812 10.998047 L 10.007812 10.998047 L 10.007812 11.410156 L 10.007812 11.998047 C 10.007812 12.307497 10.098112 12.550367 10.289062 12.748047 L 13.007812 15.998047 C 14.080813 14.581377 14.653552 14.164717 15.726562 12.748047 C 15.917514 12.550367 16.007812 12.307497 16.007812 11.998047 L 16.007812 11.410156 L 16.007812 10.998047 L 15.007812 10.998047 C 14.750922 10.998047 14.479362 11.127877 14.289062 11.310547 L 14.007812 11.681641 L 14.007812 3.9980469 A 1.0001 1.0001 0 0 0 13.007812 2.9980469 L 4.0078125 2.9980469 z M 8.1582031 6.9921875 C 8.0484433 6.9932875 7.9223681 7.0035425 7.765625 7.0390625 C 7.4521389 7.1101125 7.0287715 7.4342308 6.8789062 7.7617188 C 6.5791759 8.4166938 6.6664696 8.9023121 6.6757812 9.9550781 C 6.6756179 10.962356 6.6513972 11.642024 6.5117188 12.066406 C 6.371526 12.49235 6.1668873 12.778753 5.4492188 13.214844 A 0.91937568 0.91937568 0 0 0 5.3730469 13.267578 A 0.91937568 0.91937568 0 0 0 5.1816406 13.462891 A 0.91937568 0.91937568 0 0 0 5.1308594 13.541016 A 0.91937568 0.91937568 0 0 0 5.0546875 13.707031 A 0.91937568 0.91937568 0 0 0 5.0292969 13.796875 A 0.91937568 0.91937568 0 0 0 5.0136719 13.886719 A 0.91937568 0.91937568 0 0 0 5.0097656 14.070312 A 0.91937568 0.91937568 0 0 0 5.109375 14.421875 A 0.91937568 0.91937568 0 0 0 5.2695312 14.644531 A 0.91937568 0.91937568 0 0 0 5.4101562 14.761719 A 0.91937568 0.91937568 0 0 0 5.4453125 14.785156 A 0.91937568 0.91937568 0 0 0 5.4492188 14.787109 C 5.4531088 14.789509 5.4531513 14.788616 5.4570312 14.791016 C 5.8683251 15.041042 6.1569284 15.223564 6.3125 15.349609 C 6.4693931 15.476725 6.4924551 15.513396 6.5351562 15.617188 C 6.6205583 15.824768 6.6757812 16.534553 6.6757812 18.054688 C 6.6659612 19.072174 6.5743848 19.547434 6.8574219 20.199219 C 6.9994524 20.526291 7.4088037 20.859701 7.7207031 20.941406 C 8.0326023 21.023106 8.2271118 21 8.4277344 21 L 10.095703 21 L 10.095703 20.996094 C 10.100803 20.996055 10.104305 21.0001 10.109375 21 A 0.91937568 0.91937568 0 0 0 10.095703 19.162109 L 10.082031 19.162109 C 9.8771378 19.165044 9.837115 19.131829 9.7675781 19.070312 C 9.6980411 19.008795 9.6055251 18.872499 9.53125 18.654297 C 9.3826998 18.217892 9.3476564 17.528172 9.3476562 17.041016 C 9.3476562 15.908457 9.0412739 15.025612 8.4394531 14.476562 C 8.2125451 14.269552 7.9164934 14.147418 7.6738281 14.001953 C 7.9150838 13.857111 8.2078453 13.739537 8.4335938 13.533203 C 9.0368087 12.981866 9.3476562 12.09628 9.3476562 10.960938 C 9.3476562 10.454223 9.3695723 9.7735984 9.5097656 9.3476562 C 9.5798626 9.1346853 9.667697 9.0053104 9.7382812 8.9433594 C 9.8088654 8.8814094 9.8649589 8.8398438 10.095703 8.8398438 A 0.91937568 0.91937568 0 0 0 10.095703 7.0019531 L 8.4550781 7.0019531 C 8.3614071 6.9992531 8.2679628 6.9911475 8.1582031 6.9921875 z M 17.857422 6.9921875 C 17.748151 6.9910875 17.654217 6.9992531 17.560547 7.0019531 L 15.917969 7.0019531 L 15.917969 8.8398438 C 16.148714 8.8398438 16.204807 8.8814034 16.275391 8.9433594 C 16.345971 9.0053094 16.433809 9.1346863 16.503906 9.3476562 C 16.644099 9.7735972 16.667969 10.454228 16.667969 10.960938 C 16.667969 12.09628 16.978817 12.981866 17.582031 13.533203 C 17.807779 13.739537 18.100541 13.857111 18.341797 14.001953 C 18.098825 14.14755 17.801388 14.269314 17.574219 14.476562 C 16.972397 15.025611 16.667969 15.908457 16.667969 17.041016 C 16.667969 17.528177 16.630969 18.217891 16.482422 18.654297 C 16.408142 18.8725 16.315631 19.008795 16.246094 19.070312 C 16.176554 19.131833 16.136537 19.164969 15.931641 19.162109 L 15.917969 19.162109 A 0.91937568 0.91937568 0 0 0 15.90625 21 C 15.91075 21.000063 15.913549 20.996094 15.917969 20.996094 L 15.917969 21 L 17.585938 21 C 17.786562 21 17.983022 21.023106 18.294922 20.941406 C 18.606824 20.859696 19.016173 20.526289 19.158203 20.199219 C 19.441238 19.547436 19.349661 19.072171 19.339844 18.054688 L 19.339844 18.046875 C 19.340188 16.536752 19.393384 15.824103 19.478516 15.617188 C 19.521216 15.513396 19.546235 15.476723 19.703125 15.349609 C 19.858693 15.223567 20.145356 15.041035 20.556641 14.791016 C 20.560141 14.788916 20.560953 14.789209 20.564453 14.787109 A 0.91937568 0.91937568 0 0 0 20.568359 14.785156 A 0.91937568 0.91937568 0 0 0 20.640625 14.734375 A 0.91937568 0.91937568 0 0 0 20.644531 14.732422 A 0.91937568 0.91937568 0 0 0 20.710938 14.675781 A 0.91937568 0.91937568 0 0 0 20.714844 14.673828 A 0.91937568 0.91937568 0 0 0 20.775391 14.611328 A 0.91937568 0.91937568 0 0 0 20.779297 14.607422 A 0.91937568 0.91937568 0 0 0 20.833984 14.539062 A 0.91937568 0.91937568 0 0 0 20.835938 14.535156 A 0.91937568 0.91937568 0 0 0 20.882812 14.460938 A 0.91937568 0.91937568 0 0 0 20.884766 14.457031 A 0.91937568 0.91937568 0 0 0 20.925781 14.378906 A 0.91937568 0.91937568 0 0 0 20.927734 14.375 A 0.91937568 0.91937568 0 0 0 20.958984 14.294922 A 0.91937568 0.91937568 0 0 0 20.960938 14.291016 A 0.91937568 0.91937568 0 0 0 20.984375 14.205078 A 0.91937568 0.91937568 0 0 0 20.984375 14.201172 A 0.91937568 0.91937568 0 0 0 21 14.115234 A 0.91937568 0.91937568 0 0 0 21 14.111328 A 0.91937568 0.91937568 0 0 0 21.007812 14.023438 A 0.91937568 0.91937568 0 0 0 21.007812 14.019531 A 0.91937568 0.91937568 0 0 0 21.003906 13.931641 A 0.91937568 0.91937568 0 0 0 21.003906 13.927734 A 0.91937568 0.91937568 0 0 0 20.992188 13.839844 A 0.91937568 0.91937568 0 0 0 20.992188 13.835938 A 0.91937568 0.91937568 0 0 0 20.972656 13.751953 A 0.91937568 0.91937568 0 0 0 20.970703 13.746094 A 0.91937568 0.91937568 0 0 0 20.943359 13.664062 A 0.91937568 0.91937568 0 0 0 20.941406 13.660156 A 0.91937568 0.91937568 0 0 0 20.904297 13.580078 A 0.91937568 0.91937568 0 0 0 20.902344 13.576172 A 0.91937568 0.91937568 0 0 0 20.859375 13.5 A 0.91937568 0.91937568 0 0 0 20.857422 13.498047 A 0.91937568 0.91937568 0 0 0 20.804688 13.425781 A 0.91937568 0.91937568 0 0 0 20.802734 13.423828 A 0.91937568 0.91937568 0 0 0 20.794922 13.414062 A 0.91937568 0.91937568 0 0 0 20.744141 13.357422 A 0.91937568 0.91937568 0 0 0 20.705078 13.320312 A 0.91937568 0.91937568 0 0 0 20.677734 13.294922 A 0.91937568 0.91937568 0 0 0 20.673828 13.292969 A 0.91937568 0.91937568 0 0 0 20.603516 13.240234 A 0.91937568 0.91937568 0 0 0 20.599609 13.238281 A 0.91937568 0.91937568 0 0 0 20.564453 13.214844 C 19.846782 12.778747 19.642145 12.492349 19.501953 12.066406 C 19.362274 11.642026 19.340008 10.962356 19.339844 9.9550781 L 19.339844 9.9472656 C 19.349644 8.9021996 19.435394 8.4143807 19.136719 7.7617188 C 18.986854 7.4342308 18.561532 7.1101155 18.248047 7.0390625 C 18.091303 7.0035325 17.966694 6.9932575 17.857422 6.9921875 z "
     />
 </svg>
